images/svg/linkedin.svg

<svg width="28" height="28" viewBox="0 0 28 28" fill="none" xmlns="http://www.w3.org/2000/svg">
<g clip-path="url(#clip0_2_167)" filter="url(#filter0_dd_2_167)">
<path d="M23.995 20.0001V19.9993H24V12.6643C24 9.07593 23.2275 6.31177 19.0325 6.31177C17.0158 6.31177 15.6625 7.41843 15.11 8.4676H15.0517V6.64677H11.0742V19.9993H15.2158V13.3876C15.2158 11.6468 15.5458 9.96343 17.7017 9.96343C19.8258 9.96343 19.8575 11.9501 19.8575 13.4993V20.0001H23.995Z" fill="#AFB1B8"/>
<path d="M4.33 6.64746H8.47667V20H4.33V6.64746Z" fill="#AFB1B8"/>
<path d="M6.40167 0C5.07583 0 4 1.07583 4 2.40167C4 3.7275 5.07583 4.82583 6.40167 4.82583C7.7275 4.82583 8.80333 3.7275 8.80333 2.40167C8.8025 1.07583 7.72667 0 6.40167 0V0Z" fill="#AFB1B8"/>
</g>
<defs>
<filter id="filter0_dd_2_167" x="0" y="0" width="28" height="28" filterUnits="userSpaceOnUse" color-interpolation-filters="sRGB">
<feFlood flood-opacity="0" result="BackgroundImageFix"/>
<feColorMatrix in="SourceAlpha" type="matrix" values="0 0 0 0 0 0 0 0 0 0 0 0 0 0 0 0 0 0 127 0" result="hardAlpha"/>
<feOffset dy="4"/>
<feGaussianBlur stdDeviation="2"/>
<feComposite in2="hardAlpha" operator="out"/>
<feColorMatrix type="matrix" values="0 0 0 0 0 0 0 0 0 0 0 0 0 0 0 0 0 0 0.25 0"/>
<feBlend mode="normal" in2="BackgroundImageFix" result="effect1_dropShadow_2_167"/>
<feColorMatrix in="SourceAlpha" type="matrix" values="0 0 0 0 0 0 0 0 0 0 0 0 0 0 0 0 0 0 127 0" result="hardAlpha"/>
<feOffset dy="4"/>
<feGaussianBlur stdDeviation="2"/>
<feComposite in2="hardAlpha" operator="out"/>
<feColorMatrix type="matrix" values="0 0 0 0 0 0 0 0 0 0 0 0 0 0 0 0 0 0 0.25 0"/>
<feBlend mode="normal" in2="effect1_dropShadow_2_167" result="effect2_dropShadow_2_167"/>
<feBlend mode="normal" in="SourceGraphic" in2="effect2_dropShadow_2_167" result="shape"/>
</filter>
<clipPath id="clip0_2_167">
<rect width="20" height="20" fill="white" transform="translate(4)"/>
</clipPath>
</defs>
</svg>

<svg width="28" height="28" fill="none" xmlns="http://www.w3.org/2000/svg"><g clip-path="url(#a)" filter="url(#b)" fill="#AFB1B8"><path d="M23.995 20H24v-7.336c0-3.588-.773-6.352-4.968-6.352-2.016 0-3.37 1.106-3.922 2.156h-.058V6.647h-3.978v13.352h4.142v-6.611c0-1.741.33-3.425 2.486-3.425 2.124 0 2.155 1.987 2.155 3.536V20h4.138ZM4.33 6.647h4.147V20H4.33V6.647ZM6.402 0A2.402 2.402 0 0 0 4 2.402c0 1.325 1.076 2.424 2.402 2.424 1.325 0 2.401-1.098 2.401-2.424A2.403 2.403 0 0 0 6.402 0Z"/></g><defs><clipPath id="a"><path fill="#fff" transform="translate(4)" d="M0 0h20v20H0z"/></clipPath><filter id="b" x="0" y="0" width="28" height="28" filterUnits="userSpaceOnUse" color-interpolation-filters="sRGB"><feFlood flood-opacity="0" result="BackgroundImageFix"/><feColorMatrix in="SourceAlpha" values="0 0 0 0 0 0 0 0 0 0 0 0 0 0 0 0 0 0 127 0" result="hardAlpha"/><feOffset dy="4"/><feGaussianBlur stdDeviation="2"/><feComposite in2="hardAlpha" operator="out"/><feColorMatrix values="0 0 0 0 0 0 0 0 0 0 0 0 0 0 0 0 0 0 0.25 0"/><feBlend in2="BackgroundImageFix" result="effect1_dropShadow_2_167"/><feColorMatrix in="SourceAlpha" values="0 0 0 0 0 0 0 0 0 0 0 0 0 0 0 0 0 0 127 0" result="hardAlpha"/><feOffset dy="4"/><feGaussianBlur stdDeviation="2"/><feComposite in2="hardAlpha" operator="out"/><feColorMatrix values="0 0 0 0 0 0 0 0 0 0 0 0 0 0 0 0 0 0 0.25 0"/><feBlend in2="effect1_dropShadow_2_167" result="effect2_dropShadow_2_167"/><feBlend in="SourceGraphic" in2="effect2_dropShadow_2_167" result="shape"/></filter></defs></svg>
